icons/core/bookmark-slash.svg

<svg width="32" height="32" viewBox="0 0 32 32" fill="none" xmlns="http://www.w3.org/2000/svg">
<path fill-rule="evenodd" clip-rule="evenodd" d="M8.00006 4H24.0001V16H26.0001V4C26.0001 2.89543 25.1046 2 24.0001 2H8.00006V4ZM30.4087 25.8064L26 22.5733V29.1962V30.9282L24.5 30.0622L16 25.1547L7.5 30.0622L6 30.9282V29.1961V7.90666L0.408691 3.80636L1.59142 2.19355L31.5914 24.1936L30.4087 25.8064ZM8 9.37332L24 21.1067V27.4641L17 23.4226C16.3812 23.0654 15.6188 23.0654 15 23.4226L8 27.4641L8 9.37332Z" fill="black"/>
</svg>

<svg viewBox="0 0 32 32" xmlns="http://www.w3.org/2000/svg"><path fill-rule="evenodd" d="M8 4h16v12h2V4a2 2 0 00-2-2H8v2zM30.41 25.806L26 22.573v8.355l-1.5-.866-8.5-4.907-8.5 4.907-1.5.866V7.906l-5.591-4.1L1.59 2.194l30 22-1.182 1.612zM8 9.373l16 11.734v6.357l-7-4.041a2 2 0 00-2 0l-7 4.041V9.374z"/></svg>
